sandpit/css/svg-animation/drawning.svg

<svg width="160" height="280" viewBox="0 0 160 280" fill="none" xmlns="http://www.w3.org/2000/svg">
<g id="drawning 1">
<g id="shadow">
<g id="bg">
<g id="g1008">
<g id="shadow_2" opacity="0.293548" filter="url(#filter0_f)">
<path d="M120.953 31.2225H38.8911C29.6717 31.2225 22.1979 39.2822 22.1979 49.2244V239.954C22.1979 249.896 29.6717 257.956 38.8911 257.956H120.953C130.172 257.956 137.646 249.896 137.646 239.954V49.2244C137.646 39.2822 130.172 31.2225 120.953 31.2225Z" fill="black"/>
<path d="M120.953 31.2225H38.8911C29.6717 31.2225 22.1979 39.2822 22.1979 49.2244V239.954C22.1979 249.896 29.6717 257.956 38.8911 257.956H120.953C130.172 257.956 137.646 249.896 137.646 239.954V49.2244C137.646 39.2822 130.172 31.2225 120.953 31.2225Z" stroke="white" stroke-width="1.00157" stroke-linecap="round" stroke-linejoin="round"/>
</g>
<path id="bg_2" d="M120.953 23H38.8911C29.6717 23 22.1979 31.2855 22.1979 41.5062V237.579C22.1979 247.8 29.6717 256.085 38.8911 256.085H120.953C130.172 256.085 137.646 247.8 137.646 237.579V41.5062C137.646 31.2855 130.172 23 120.953 23Z" fill="white" stroke="white" stroke-width="1.00157" stroke-linecap="round" stroke-linejoin="round"/>
<path id="rect1243" fill-rule="evenodd" clip-rule="evenodd" d="M22 235.573V237.773C22 248.025 29.4725 256.278 38.7543 256.278H121.115C130.396 256.278 137.869 248.025 137.869 237.773V235.573H22Z" fill="#39B637" fill-opacity="0.951807"/>
<path id="menu_left" d="M37.2246 44.524C39.5516 44.524 41.438 42.4327 41.438 39.853C41.438 37.2732 39.5516 35.1819 37.2246 35.1819C34.8975 35.1819 33.0111 37.2732 33.0111 39.853C33.0111 42.4327 34.8975 44.524 37.2246 44.524Z" fill="#F0F0F2"/>
<g id="menu">
<path id="rect1264" fill-rule="evenodd" clip-rule="evenodd" d="M118.406 35.1819H126.833V37.5174H118.406V35.1819Z" fill="#F0F0F2"/>
<path id="rect1268" fill-rule="evenodd" clip-rule="evenodd" d="M118.406 38.6852H126.833V41.0207H118.406V38.6852Z" fill="#F0F0F2"/>
<path id="rect1272" fill-rule="evenodd" clip-rule="evenodd" d="M118.406 42.1885H126.833V44.524H118.406V42.1885Z" fill="#F0F0F2"/>
</g>
<path id="category" d="M73.7763 55.501H34.3805C33.6242 55.501 33.0111 56.1807 33.0111 57.0191V62.3908C33.0111 63.2293 33.6242 63.9089 34.3805 63.9089H73.7763C74.5325 63.9089 75.1456 63.2293 75.1456 62.3908V57.0191C75.1456 56.1807 74.5325 55.501 73.7763 55.501Z" fill="#F0F0F2"/>
<path id="category_2" d="M93.7901 55.6178H77.6736C76.9173 55.6178 76.3043 56.2975 76.3043 57.1359V62.5076C76.3043 63.346 76.9173 64.0257 77.6736 64.0257H93.7901C94.5464 64.0257 95.1595 63.346 95.1595 62.5076V57.1359C95.1595 56.2975 94.5464 55.6178 93.7901 55.6178Z" fill="#F0F0F2"/>
<path id="category_3" d="M125.496 55.6178H97.8982C97.142 55.6178 96.5289 56.2975 96.5289 57.1359V62.5076C96.5289 63.346 97.142 64.0257 97.8982 64.0257H125.496C126.253 64.0257 126.866 63.346 126.866 62.5076V57.1359C126.866 56.2975 126.253 55.6178 125.496 55.6178Z" fill="#F0F0F2"/>
<path id="category_4" d="M57.4491 65.3103H39.6473C38.891 65.3103 38.2779 65.9899 38.2779 66.8283V72.2001C38.2779 73.0385 38.891 73.7182 39.6473 73.7182H57.4491C58.2054 73.7182 58.8185 73.0385 58.8185 72.2001V66.8283C58.8185 65.9899 58.2054 65.3103 57.4491 65.3103Z" fill="#F0F0F2"/>
<path id="category_5" d="M101.796 65.3103H61.4519C60.6956 65.3103 60.0825 65.9899 60.0825 66.8283V72.2001C60.0825 73.0385 60.6956 73.7182 61.4519 73.7182H101.796C102.552 73.7182 103.165 73.0385 103.165 72.2001V66.8283C103.165 65.9899 102.552 65.3103 101.796 65.3103Z" fill="#F0F0F2"/>
<path id="category_6" d="M119.598 65.3103H105.798C105.042 65.3103 104.429 65.9899 104.429 66.8283V72.2001C104.429 73.0385 105.042 73.7182 105.798 73.7182H119.598C120.354 73.7182 120.967 73.0385 120.967 72.2001V66.8283C120.967 65.9899 120.354 65.3103 119.598 65.3103Z" fill="#F0F0F2"/>
<g id="contact">
<path id="circle1302" d="M111.559 44.524C113.886 44.524 115.772 42.4327 115.772 39.853C115.772 37.2732 113.886 35.1819 111.559 35.1819C109.232 35.1819 107.346 37.2732 107.346 39.853C107.346 42.4327 109.232 44.524 111.559 44.524Z" fill="#42B940"/>
<path id="contact__icon" d="M111.536 37.1089C111.512 37.1093 111.488 37.1102 111.465 37.1117C111.027 37.1393 110.617 37.3577 110.324 37.7192C110.032 38.0807 109.88 38.556 109.902 39.0413C109.924 39.5265 110.119 39.9822 110.443 40.3091C110.767 40.6359 111.195 40.8072 111.633 40.7856C112.07 40.764 112.483 40.5513 112.78 40.1939C113.076 39.8365 113.234 39.3634 113.217 38.878L113.215 38.8323C113.188 38.3609 112.999 37.919 112.686 37.5982C112.374 37.2773 111.962 37.1022 111.535 37.109L111.536 37.1089ZM111.46 41.3922C109.149 41.363 109.132 42.8784 109.132 42.8784L113.986 42.8994C113.986 42.8994 113.968 41.3734 111.46 41.3922V41.3922Z" fill="white"/>
</g>
<path id="toggle-color" d="M99.2701 79.921H60.5738C58.2281 79.921 56.3266 82.029 56.3266 84.6294C56.3266 87.2298 58.2281 89.3378 60.5738 89.3378H99.2701C101.616 89.3378 103.517 87.2298 103.517 84.6294C103.517 82.029 101.616 79.921 99.2701 79.921Z" fill="#F0F0F2"/>
<path id="toggle-color2" d="M99.2701 84.3448H60.5738C58.2281 84.3448 56.3266 86.4529 56.3266 89.0532C56.3266 91.6536 58.2281 93.7617 60.5738 93.7617H99.2701C101.616 93.7617 103.517 91.6536 103.517 89.0532C103.517 86.4529 101.616 84.3448 99.2701 84.3448Z" fill="#42B940"/>
<g id="box">
<path id="box__img" d="M65.8807 118.48H42.7504C40.4113 118.48 38.5151 120.582 38.5151 123.175V139.475C38.5151 142.068 40.4113 144.17 42.7504 144.17H65.8807C68.2198 144.17 70.116 142.068 70.116 139.475V123.175C70.116 120.582 68.2198 118.48 65.8807 118.48Z" fill="#42B940"/>
<g id="box__desc">
<path id="circle1253" d="M63.2124 158.233C65.0277 158.233 66.4992 156.602 66.4992 154.59C66.4992 152.577 65.0277 150.946 63.2124 150.946C61.3971 150.946 59.9255 152.577 59.9255 154.59C59.9255 156.602 61.3971 158.233 63.2124 158.233Z" fill="#42B940"/>
<path id="rect1335" d="M69.6332 146.688H39.1901C38.9234 146.688 38.7072 146.927 38.7072 147.223V149.117C38.7072 149.413 38.9234 149.652 39.1901 149.652H69.6332C69.8999 149.652 70.116 149.413 70.116 149.117V147.223C70.116 146.927 69.8999 146.688 69.6332 146.688Z" fill="#F0F0F2"/>
<path id="rect1337" d="M54.5013 150.937H38.9428C38.8127 150.937 38.7072 151.054 38.7072 151.198V152.122C38.7072 152.266 38.8127 152.383 38.9428 152.383H54.5013C54.6315 152.383 54.7369 152.266 54.7369 152.122V151.198C54.7369 151.054 54.6315 150.937 54.5013 150.937Z" fill="#F0F0F2"/>
<path id="rect1341" d="M54.5013 153.83H38.9428C38.8127 153.83 38.7072 153.947 38.7072 154.091V155.015C38.7072 155.16 38.8127 155.277 38.9428 155.277H54.5013C54.6315 155.277 54.7369 155.16 54.7369 155.015V154.091C54.7369 153.947 54.6315 153.83 54.5013 153.83Z" fill="#F0F0F2"/>
<path id="rect1345" d="M54.5013 156.723H38.9428C38.8127 156.723 38.7072 156.84 38.7072 156.984V157.908C38.7072 158.053 38.8127 158.17 38.9428 158.17H54.5013C54.6315 158.17 54.7369 158.053 54.7369 157.908V156.984C54.7369 156.84 54.6315 156.723 54.5013 156.723Z" fill="#F0F0F2"/>
</g>
</g>
<g id="box_2">
<path id="box__img_2" d="M116.937 118.48H93.8064C91.4673 118.48 89.5711 120.582 89.5711 123.175V139.475C89.5711 142.068 91.4673 144.17 93.8064 144.17H116.937C119.276 144.17 121.172 142.068 121.172 139.475V123.175C121.172 120.582 119.276 118.48 116.937 118.48Z" fill="#42B940"/>
<g id="box__desc_2">
<path id="circle1354" d="M114.406 158.233C116.221 158.233 117.693 156.602 117.693 154.59C117.693 152.577 116.221 150.946 114.406 150.946C112.59 150.946 111.119 152.577 111.119 154.59C111.119 156.602 112.59 158.233 114.406 158.233Z" fill="#42B940"/>
<path id="rect1356" d="M120.827 146.688H90.3835C90.1168 146.688 89.9006 146.927 89.9006 147.223V149.117C89.9006 149.413 90.1168 149.652 90.3835 149.652H120.827C121.093 149.652 121.309 149.413 121.309 149.117V147.223C121.309 146.927 121.093 146.688 120.827 146.688Z" fill="#F0F0F2"/>
<path id="rect1358" d="M105.695 150.937H90.1362C90.0061 150.937 89.9006 151.054 89.9006 151.198V152.122C89.9006 152.266 90.0061 152.383 90.1362 152.383H105.695C105.825 152.383 105.93 152.266 105.93 152.122V151.198C105.93 151.054 105.825 150.937 105.695 150.937Z" fill="#F0F0F2"/>
<path id="rect1360" d="M105.695 153.83H90.1362C90.0061 153.83 89.9006 153.947 89.9006 154.091V155.015C89.9006 155.16 90.0061 155.277 90.1362 155.277H105.695C105.825 155.277 105.93 155.16 105.93 155.015V154.091C105.93 153.947 105.825 153.83 105.695 153.83Z" fill="#F0F0F2"/>
<path id="rect1362" d="M105.695 156.723H90.1362C90.0061 156.723 89.9006 156.84 89.9006 156.984V157.908C89.9006 158.053 90.0061 158.17 90.1362 158.17H105.695C105.825 158.17 105.93 158.053 105.93 157.908V156.984C105.93 156.84 105.825 156.723 105.695 156.723Z" fill="#F0F0F2"/>
</g>
</g>
<g id="box_3">
<path id="box__img_3" d="M116.937 165.216H93.8064C91.4673 165.216 89.5711 167.318 89.5711 169.911V186.212C89.5711 188.805 91.4673 190.907 93.8064 190.907H116.937C119.276 190.907 121.172 188.805 121.172 186.212V169.911C121.172 167.318 119.276 165.216 116.937 165.216Z" fill="#42B940"/>
<g id="box__desc_3">
<path id="circle1366" d="M114.406 205.411C116.221 205.411 117.693 203.78 117.693 201.767C117.693 199.755 116.221 198.123 114.406 198.123C112.59 198.123 111.119 199.755 111.119 201.767C111.119 203.78 112.59 205.411 114.406 205.411Z" fill="#42B940"/>
<path id="rect1368" d="M120.827 193.865H90.3835C90.1168 193.865 89.9006 194.105 89.9006 194.401V196.295C89.9006 196.59 90.1168 196.83 90.3835 196.83H120.827C121.093 196.83 121.309 196.59 121.309 196.295V194.401C121.309 194.105 121.093 193.865 120.827 193.865Z" fill="#F0F0F2"/>
<path id="rect1370" d="M105.695 198.115H90.1362C90.0061 198.115 89.9006 198.231 89.9006 198.376V199.3C89.9006 199.444 90.0061 199.561 90.1362 199.561H105.695C105.825 199.561 105.93 199.444 105.93 199.3V198.376C105.93 198.231 105.825 198.115 105.695 198.115Z" fill="#F0F0F2"/>
<path id="rect1372" d="M105.695 201.008H90.1362C90.0061 201.008 89.9006 201.125 89.9006 201.269V202.193C89.9006 202.337 90.0061 202.454 90.1362 202.454H105.695C105.825 202.454 105.93 202.337 105.93 202.193V201.269C105.93 201.125 105.825 201.008 105.695 201.008Z" fill="#F0F0F2"/>
<path id="rect1374" d="M105.695 203.901H90.1362C90.0061 203.901 89.9006 204.018 89.9006 204.162V205.086C89.9006 205.23 90.0061 205.347 90.1362 205.347H105.695C105.825 205.347 105.93 205.23 105.93 205.086V204.162C105.93 204.018 105.825 203.901 105.695 203.901Z" fill="#F0F0F2"/>
</g>
</g>
<g id="box_4">
<path id="box__img_4" d="M65.8807 165.216H42.7504C40.4113 165.216 38.5151 167.318 38.5151 169.911V186.212C38.5151 188.805 40.4113 190.907 42.7504 190.907H65.8807C68.2198 190.907 70.116 188.805 70.116 186.212V169.911C70.116 167.318 68.2198 165.216 65.8807 165.216Z" fill="#42B940"/>
<g id="box__desc_4">
<path id="circle1378" d="M63.2124 205.411C65.0277 205.411 66.4992 203.78 66.4992 201.767C66.4992 199.755 65.0277 198.123 63.2124 198.123C61.3971 198.123 59.9255 199.755 59.9255 201.767C59.9255 203.78 61.3971 205.411 63.2124 205.411Z" fill="#42B940"/>
<path id="rect1380" d="M69.6332 193.865H39.1901C38.9234 193.865 38.7072 194.105 38.7072 194.401V196.295C38.7072 196.59 38.9234 196.83 39.1901 196.83H69.6332C69.8999 196.83 70.116 196.59 70.116 196.295V194.401C70.116 194.105 69.8999 193.865 69.6332 193.865Z" fill="#F0F0F2"/>
<path id="rect1382" d="M54.5013 198.115H38.9428C38.8127 198.115 38.7072 198.231 38.7072 198.376V199.3C38.7072 199.444 38.8127 199.561 38.9428 199.561H54.5013C54.6315 199.561 54.7369 199.444 54.7369 199.3V198.376C54.7369 198.231 54.6315 198.115 54.5013 198.115Z" fill="#F0F0F2"/>
<path id="rect1384" d="M54.5013 201.008H38.9428C38.8127 201.008 38.7072 201.125 38.7072 201.269V202.193C38.7072 202.337 38.8127 202.454 38.9428 202.454H54.5013C54.6315 202.454 54.7369 202.337 54.7369 202.193V201.269C54.7369 201.125 54.6315 201.008 54.5013 201.008Z" fill="#F0F0F2"/>
<path id="rect1386" d="M54.5013 203.901H38.9428C38.8127 203.901 38.7072 204.018 38.7072 204.162V205.086C38.7072 205.23 38.8127 205.347 38.9428 205.347H54.5013C54.6315 205.347 54.7369 205.23 54.7369 205.086V204.162C54.7369 204.018 54.6315 203.901 54.5013 203.901Z" fill="#F0F0F2"/>
</g>
</g>
<g id="send-btn">
<path id="path1426" d="M123.59 250.831C126.034 250.831 128.014 248.635 128.014 245.926C128.014 243.217 126.034 241.021 123.59 241.021C121.147 241.021 119.166 243.217 119.166 245.926C119.166 248.635 121.147 250.831 123.59 250.831Z" fill="white"/>
<path id="path1430" d="M121.286 245.363C121.997 245.1 123.935 245.275 124.554 245.363C123.975 244.939 123.52 244.317 123.293 243.964C123.28 243.745 123.069 243.872 123.293 243.474C123.42 243.215 124.126 243.474 124.126 243.474C124.126 243.474 125.566 244.925 125.83 245.363C126.04 245.684 126.172 246.247 125.83 246.539C125.474 247.123 124.402 248.297 124.126 248.428C123.744 248.574 123.353 248.428 123.353 248.428C123.129 248.253 123.353 247.902 123.353 247.902C123.524 247.508 124.124 246.799 124.624 246.493C123.821 246.683 122.02 246.683 121.296 246.493C121.138 246.07 121.049 245.596 121.286 245.363H121.286Z" fill="#39B637"/>
</g>
</g>
</g>
</g>
</g>
<defs>
<filter id="filter0_f" x="7.75814" y="16.7827" width="144.327" height="255.613" filterUnits="userSpaceOnUse" color-interpolation-filters="sRGB">
<feFlood flood-opacity="0" result="BackgroundImageFix"/>
<feBlend mode="normal" in="SourceGraphic" in2="BackgroundImageFix" result="shape"/>
<feGaussianBlur stdDeviation="6.9695" result="effect1_foregroundBlur"/>
</filter>
</defs>
</svg>

<svg width="160" height="280" fill="none" xmlns="http://www.w3.org/2000/svg"><g opacity=".294" filter="url(#a)"><path d="M120.953 31.223H38.891c-9.22 0-16.693 8.06-16.693 18.001v190.73c0 9.942 7.474 18.002 16.693 18.002h82.062c9.219 0 16.693-8.06 16.693-18.002V49.224c0-9.942-7.474-18.001-16.693-18.001z" fill="#000"/><path d="M120.953 31.223H38.891c-9.22 0-16.693 8.06-16.693 18.001v190.73c0 9.942 7.474 18.002 16.693 18.002h82.062c9.219 0 16.693-8.06 16.693-18.002V49.224c0-9.942-7.474-18.001-16.693-18.001z" stroke="#fff" stroke-width="1.002" stroke-linecap="round" stroke-linejoin="round"/></g><path d="M120.953 23H38.891c-9.22 0-16.693 8.285-16.693 18.506V237.58c0 10.221 7.474 18.506 16.693 18.506h82.062c9.219 0 16.693-8.285 16.693-18.506V41.506c0-10.22-7.474-18.506-16.693-18.506z" fill="#fff" stroke="#fff" stroke-width="1.002" stroke-linecap="round" stroke-linejoin="round"/><path fill-rule="evenodd" clip-rule="evenodd" d="M22 235.573v2.2c0 10.252 7.473 18.505 16.754 18.505h82.361c9.281 0 16.754-8.253 16.754-18.505v-2.2H22z" fill="#39B637" fill-opacity=".952"/><path d="M37.225 44.524c2.327 0 4.213-2.091 4.213-4.671s-1.886-4.671-4.213-4.671c-2.328 0-4.214 2.091-4.214 4.671s1.886 4.671 4.214 4.671z" fill="#F0F0F2"/><g fill-rule="evenodd" clip-rule="evenodd" fill="#F0F0F2"><path d="M118.406 35.182h8.427v2.335h-8.427v-2.335zM118.406 38.685h8.427v2.336h-8.427v-2.336zM118.406 42.188h8.427v2.336h-8.427v-2.336z"/></g><path d="M73.776 55.501H34.381c-.757 0-1.37.68-1.37 1.518v5.372c0 .838.613 1.518 1.37 1.518h39.395c.757 0 1.37-.68 1.37-1.518v-5.372c0-.838-.614-1.518-1.37-1.518zM93.79 55.618H77.674c-.757 0-1.37.68-1.37 1.518v5.372c0 .838.613 1.518 1.37 1.518H93.79c.756 0 1.37-.68 1.37-1.518v-5.372c0-.839-.614-1.518-1.37-1.518zM125.496 55.618H97.898c-.756 0-1.37.68-1.37 1.518v5.372c0 .838.614 1.518 1.37 1.518h27.598c.757 0 1.37-.68 1.37-1.518v-5.372c0-.839-.613-1.518-1.37-1.518zM57.45 65.31H39.646c-.756 0-1.37.68-1.37 1.518V72.2c0 .838.614 1.518 1.37 1.518H57.45c.756 0 1.37-.68 1.37-1.518v-5.372c0-.838-.614-1.518-1.37-1.518zM101.796 65.31H61.452c-.756 0-1.37.68-1.37 1.518V72.2c0 .838.614 1.518 1.37 1.518h40.344c.756 0 1.369-.68 1.369-1.518v-5.372c0-.838-.613-1.518-1.369-1.518zM119.598 65.31h-13.8c-.756 0-1.369.68-1.369 1.518V72.2c0 .838.613 1.518 1.369 1.518h13.8c.756 0 1.369-.68 1.369-1.518v-5.372c0-.838-.613-1.518-1.369-1.518z" fill="#F0F0F2"/><path d="M111.559 44.524c2.327 0 4.213-2.091 4.213-4.671s-1.886-4.671-4.213-4.671-4.213 2.091-4.213 4.671 1.886 4.671 4.213 4.671z" fill="#42B940"/><path d="M111.536 37.109a1.603 1.603 0 0 0-1.212.61 1.97 1.97 0 0 0-.422 1.322c.022.486.217.941.541 1.268.324.327.752.498 1.19.477.437-.022.85-.235 1.147-.592.296-.358.454-.83.437-1.316l-.002-.046a1.925 1.925 0 0 0-.529-1.234 1.57 1.57 0 0 0-1.151-.489h.001zm-.076 4.283c-2.311-.029-2.328 1.486-2.328 1.486l4.854.021s-.018-1.526-2.526-1.507z" fill="#fff"/><path d="M99.27 79.921H60.574c-2.346 0-4.247 2.108-4.247 4.708s1.901 4.709 4.247 4.709H99.27c2.346 0 4.247-2.108 4.247-4.709 0-2.6-1.901-4.708-4.247-4.708z" fill="#F0F0F2"/><path d="M99.27 84.345H60.574c-2.346 0-4.247 2.108-4.247 4.708s1.901 4.709 4.247 4.709H99.27c2.346 0 4.247-2.108 4.247-4.709 0-2.6-1.901-4.708-4.247-4.708zM65.88 118.48H42.75c-2.339 0-4.235 2.102-4.235 4.695v16.3c0 2.593 1.896 4.695 4.235 4.695h23.13c2.34 0 4.236-2.102 4.236-4.695v-16.3c0-2.593-1.896-4.695-4.235-4.695zM63.212 158.233c1.816 0 3.287-1.631 3.287-3.643 0-2.013-1.471-3.644-3.287-3.644-1.815 0-3.287 1.631-3.287 3.644 0 2.012 1.472 3.643 3.287 3.643z" fill="#42B940"/><path d="M69.633 146.688H39.19c-.267 0-.483.239-.483.535v1.894c0 .296.216.535.483.535h30.443c.267 0 .483-.239.483-.535v-1.894c0-.296-.216-.535-.483-.535zM54.501 150.937H38.943c-.13 0-.236.117-.236.261v.924c0 .144.106.261.236.261H54.5c.13 0 .236-.117.236-.261v-.924c0-.144-.105-.261-.236-.261zM54.501 153.83H38.943c-.13 0-.236.117-.236.261v.924c0 .145.106.262.236.262H54.5c.13 0 .236-.117.236-.262v-.924c0-.144-.105-.261-.236-.261zM54.501 156.723H38.943c-.13 0-.236.117-.236.261v.924c0 .145.106.262.236.262H54.5c.13 0 .236-.117.236-.262v-.924c0-.144-.105-.261-.236-.261z" fill="#F0F0F2"/><g><path d="M116.937 118.48h-23.13c-2.34 0-4.236 2.102-4.236 4.695v16.3c0 2.593 1.896 4.695 4.235 4.695h23.131c2.339 0 4.235-2.102 4.235-4.695v-16.3c0-2.593-1.896-4.695-4.235-4.695zM114.406 158.233c1.815 0 3.287-1.631 3.287-3.643 0-2.013-1.472-3.644-3.287-3.644-1.816 0-3.287 1.631-3.287 3.644 0 2.012 1.471 3.643 3.287 3.643z" fill="#42B940"/><path d="M120.827 146.688H90.383c-.266 0-.482.239-.482.535v1.894c0 .296.216.535.483.535h30.443c.266 0 .482-.239.482-.535v-1.894c0-.296-.216-.535-.482-.535zM105.695 150.937H90.136c-.13 0-.235.117-.235.261v.924c0 .144.105.261.235.261h15.559c.13 0 .235-.117.235-.261v-.924c0-.144-.105-.261-.235-.261zM105.695 153.83H90.136c-.13 0-.235.117-.235.261v.924c0 .145.105.262.235.262h15.559c.13 0 .235-.117.235-.262v-.924c0-.144-.105-.261-.235-.261zM105.695 156.723H90.136c-.13 0-.235.117-.235.261v.924c0 .145.105.262.235.262h15.559c.13 0 .235-.117.235-.262v-.924c0-.144-.105-.261-.235-.261z" fill="#F0F0F2"/></g><g><path d="M116.937 165.216h-23.13c-2.34 0-4.236 2.102-4.236 4.695v16.301c0 2.593 1.896 4.695 4.235 4.695h23.131c2.339 0 4.235-2.102 4.235-4.695v-16.301c0-2.593-1.896-4.695-4.235-4.695zM114.406 205.411c1.815 0 3.287-1.631 3.287-3.644 0-2.012-1.472-3.644-3.287-3.644-1.816 0-3.287 1.632-3.287 3.644 0 2.013 1.471 3.644 3.287 3.644z" fill="#42B940"/><path d="M120.827 193.865H90.383c-.266 0-.482.24-.482.536v1.894c0 .295.216.535.483.535h30.443c.266 0 .482-.24.482-.535v-1.894c0-.296-.216-.536-.482-.536zM105.695 198.115H90.136c-.13 0-.235.116-.235.261v.924c0 .144.105.261.235.261h15.559c.13 0 .235-.117.235-.261v-.924c0-.145-.105-.261-.235-.261zM105.695 201.008H90.136c-.13 0-.235.117-.235.261v.924c0 .144.105.261.235.261h15.559c.13 0 .235-.117.235-.261v-.924c0-.144-.105-.261-.235-.261zM105.695 203.901H90.136c-.13 0-.235.117-.235.261v.924c0 .144.105.261.235.261h15.559c.13 0 .235-.117.235-.261v-.924c0-.144-.105-.261-.235-.261z" fill="#F0F0F2"/></g><g><path d="M65.88 165.216H42.75c-2.339 0-4.235 2.102-4.235 4.695v16.301c0 2.593 1.896 4.695 4.235 4.695h23.13c2.34 0 4.236-2.102 4.236-4.695v-16.301c0-2.593-1.896-4.695-4.235-4.695zM63.212 205.411c1.816 0 3.287-1.631 3.287-3.644 0-2.012-1.471-3.644-3.287-3.644-1.815 0-3.287 1.632-3.287 3.644 0 2.013 1.472 3.644 3.287 3.644z" fill="#42B940"/><path d="M69.633 193.865H39.19c-.267 0-.483.24-.483.536v1.894c0 .295.216.535.483.535h30.443c.267 0 .483-.24.483-.535v-1.894c0-.296-.216-.536-.483-.536zM54.501 198.115H38.943c-.13 0-.236.116-.236.261v.924c0 .144.106.261.236.261H54.5c.13 0 .236-.117.236-.261v-.924c0-.145-.105-.261-.236-.261zM54.501 201.008H38.943c-.13 0-.236.117-.236.261v.924c0 .144.106.261.236.261H54.5c.13 0 .236-.117.236-.261v-.924c0-.144-.105-.261-.236-.261zM54.501 203.901H38.943c-.13 0-.236.117-.236.261v.924c0 .144.106.261.236.261H54.5c.13 0 .236-.117.236-.261v-.924c0-.144-.105-.261-.236-.261z" fill="#F0F0F2"/></g><g><path d="M123.59 250.831c2.444 0 4.424-2.196 4.424-4.905s-1.98-4.905-4.424-4.905c-2.443 0-4.424 2.196-4.424 4.905s1.981 4.905 4.424 4.905z" fill="#fff"/><path d="M121.286 245.363c.711-.263 2.649-.088 3.268 0-.579-.424-1.034-1.046-1.261-1.399-.013-.219-.224-.092 0-.49.127-.259.833 0 .833 0s1.44 1.451 1.704 1.889c.21.321.342.884 0 1.176-.356.584-1.428 1.758-1.704 1.889-.382.146-.773 0-.773 0-.224-.175 0-.526 0-.526.171-.394.771-1.103 1.271-1.409-.803.19-2.604.19-3.328 0-.158-.423-.247-.897-.01-1.13z" fill="#39B637"/></g><defs><filter id="a" x="7.758" y="16.783" width="144.327" height="255.613" filterUnits="userSpaceOnUse" color-interpolation-filters="sRGB"><feFlood flood-opacity="0" result="BackgroundImageFix"/><feBlend in="SourceGraphic" in2="BackgroundImageFix" result="shape"/><feGaussianBlur stdDeviation="6.97" result="effect1_foregroundBlur"/></filter></defs></svg>
